svg/fluentui-system-icons/ic_fluent_task_list_square_rtl_24_regular.svg

<svg width="24" height="24" viewBox="0 0 24 24" fill="none" xmlns="http://www.w3.org/2000/svg">
<path d="M7.25 14C6.83579 14 6.5 14.3358 6.5 14.75C6.5 15.1642 6.83579 15.5 7.25 15.5H10.75C11.1642 15.5 11.5 15.1642 11.5 14.75C11.5 14.3358 11.1642 14 10.75 14H7.25ZM6.5 9.25C6.5 8.83579 6.83579 8.5 7.25 8.5H10.75C11.1642 8.5 11.5 8.83579 11.5 9.25C11.5 9.66421 11.1642 10 10.75 10H7.25C6.83579 10 6.5 9.66421 6.5 9.25ZM17.7803 8.78033C18.0732 8.48744 18.0732 8.01256 17.7803 7.71967C17.4874 7.42678 17.0126 7.42678 16.7197 7.71967L15.25 9.18934L14.7803 8.71967C14.4874 8.42678 14.0126 8.42678 13.7197 8.71967C13.4268 9.01256 13.4268 9.48744 13.7197 9.78033L14.7197 10.7803C15.0126 11.0732 15.4874 11.0732 15.7803 10.7803L17.7803 8.78033ZM17.7803 13.2197C18.0732 13.5126 18.0732 13.9874 17.7803 14.2803L15.7803 16.2803C15.4874 16.5732 15.0126 16.5732 14.7197 16.2803L13.7197 15.2803C13.4268 14.9874 13.4268 14.5126 13.7197 14.2197C14.0126 13.9268 14.4874 13.9268 14.7803 14.2197L15.25 14.6893L16.7197 13.2197C17.0126 12.9268 17.4874 12.9268 17.7803 13.2197ZM6.25 3C4.45507 3 3 4.45507 3 6.25V17.75C3 19.5449 4.45507 21 6.25 21H17.75C19.5449 21 21 19.5449 21 17.75V6.25C21 4.45507 19.5449 3 17.75 3H6.25ZM4.5 6.25C4.5 5.2835 5.2835 4.5 6.25 4.5H17.75C18.7165 4.5 19.5 5.2835 19.5 6.25V17.75C19.5 18.7165 18.7165 19.5 17.75 19.5H6.25C5.2835 19.5 4.5 18.7165 4.5 17.75V6.25Z" fill="#212121"/>
</svg>

<svg xmlns="http://www.w3.org/2000/svg" width="24" height="24"><path d="M7.25 14a.75.75 0 0 0 0 1.5h3.5a.75.75 0 0 0 0-1.5h-3.5ZM6.5 9.25a.75.75 0 0 1 .75-.75h3.5a.75.75 0 0 1 0 1.5h-3.5a.75.75 0 0 1-.75-.75Zm11.28-.47a.75.75 0 0 0-1.06-1.06l-1.47 1.47-.47-.47a.75.75 0 1 0-1.06 1.06l1 1a.75.75 0 0 0 1.06 0l2-2Zm0 4.44a.75.75 0 0 1 0 1.06l-2 2a.75.75 0 0 1-1.06 0l-1-1a.75.75 0 1 1 1.06-1.06l.47.47 1.47-1.47a.75.75 0 0 1 1.06 0ZM6.25 3A3.25 3.25 0 0 0 3 6.25v11.5A3.25 3.25 0 0 0 6.25 21h11.5A3.25 3.25 0 0 0 21 17.75V6.25A3.25 3.25 0 0 0 17.75 3H6.25ZM4.5 6.25c0-.966.784-1.75 1.75-1.75h11.5c.966 0 1.75.784 1.75 1.75v11.5a1.75 1.75 0 0 1-1.75 1.75H6.25a1.75 1.75 0 0 1-1.75-1.75V6.25Z"/></svg>
